24x24/apps/com.jvieira.tpt.Metronome.svg

<svg xmlns="http://www.w3.org/2000/svg" width="24" height="24" viewBox="0 0 48 48"><path style="fill:#ed333b" d="M43.91 42 33.955 6c-.295-1.1-.888-2-1.991-2H16.036c-1.103 0-1.696.9-1.991 2L4.09 42c-.295 1.1.888 2 1.991 2h35.838c1.103 0 2.286-.9 1.991-2z"/><path style="opacity:.2;fill:#f4f4f7" d="M16.018 4c-1.106 0-1.7.9-1.996 2L4.045 42c-.08.3-.047.6.054.8L14.022 7c.296-1.1.89-2 1.996-2h15.965c1.106 0 1.7.9 1.996 2l9.923 35.8c.102-.2.133-.5.055-.8L33.979 6c-.296-1.1-.89-2-1.996-2z"/><path style="opacity:.2" d="M17 9h13l8 28H10z"/><path style="fill:#f2f2f2" d="M17 8h13l8 28H10z"/><path style="fill:#c0bfbc" d="M22 16v2h4v-2zm0 8v2h4v-2z"/><path style="fill:#939296" d="M22 12v2h4v-2zm0 8v2h4v-2z"/><circle style="opacity:.2" cx="24" cy="35" r="6"/><circle style="fill:#f4f4f7" cx="24" cy="34" r="6"/><rect style="fill:#77767b" width="3.976" height="28" x="35.72" y="-8.6" rx="1.913" ry="2.175" transform="rotate(30.051) skewX(.11)"/><path style="opacity:.2" d="m4.144 42.8-.054.2c-.295 1.1.888 2 1.991 2H41.92c1.103 0 2.286-.9 1.991-2l-.054-.2c-.28.7-1.127 1.2-1.937 1.2H6.081c-.81 0-1.657-.5-1.937-1.2z"/></svg>

<svg xmlns="http://www.w3.org/2000/svg" width="24" height="24" version="1.1" viewBox="0 0 48 48">
 <path style="fill:#ed333b" d="M 43.91,42 33.955,6 C 33.66,4.9 33.067,4 31.964,4 H 16.036 C 14.933,4 14.34,4.9 14.045,6 L 4.09,42 C 3.7948,43.1 4.978,44 6.081,44 H 41.919 C 43.022,44 44.205,43.1 43.91,42 Z"/>
 <path style="opacity:0.2;fill:#f4f4f7" d="M 16.018,4 C 14.912,4 14.318,4.9 14.022,6 L 4.0445,42 C 3.9658,42.3 3.9975,42.6 4.0991,42.8 L 14.022,7 C 14.318,5.9 14.912,5 16.018,5 H 31.983 C 33.089,5 33.683,5.9 33.979,7 L 43.902,42.8 C 44.004,42.6 44.035,42.3 43.957,42 L 33.979,6 C 33.683,4.9 33.089,4 31.983,4 Z"/>
 <path style="opacity:0.2" d="M 17,9 H 30 L 38,37 H 10 Z"/>
 <path style="fill:#f2f2f2" d="M 17,8 H 30 L 38,36 H 10 Z"/>
 <path style="fill:#c0bfbc" d="M 22,16 V 18 H 26 V 16 Z M 22,24 V 26 H 26 V 24 Z"/>
 <path style="fill:#939296" d="M 22,12 V 14 H 26 V 12 Z M 22,20 V 22 H 26 V 20 Z"/>
 <circle style="opacity:0.2" cx="24" cy="35" r="6"/>
 <circle style="fill:#f4f4f7" cx="24" cy="34" r="6"/>
 <rect style="fill:#77767b" width="3.976" height="28" x="35.72" y="-8.6" rx="1.913" ry="2.175" transform="matrix(0.86558,0.50078,-0.49912,0.86653,0,0)"/>
 <path style="opacity:0.2" d="M 4.1445,42.8 4.0901,43 C 3.7948,44.1 4.978,45 6.0811,45 H 41.919 C 43.022,45 44.205,44.1 43.91,43 L 43.856,42.8 C 43.576,43.5 42.729,44 41.919,44 H 6.081 C 5.2714,44 4.4241,43.5 4.1444,42.8 Z"/>
</svg>
